X:1
T:Apocalypse, CM
T:Apocalypse, CM
T:A. Mc. G.,1887
T:Public Domain Courtesy of the Cyber Hymnal™
C:A. Mc. G.,1887
Z:Public Domain
Z:Courtesy of the Cyber Hymnal™
%%score ( 1 2 ) ( 3 4 )
L:1/8
Q:1/4=108
M:4/4
K:Bb
V:1 treble 
V:2 treble 
V:3 bass 
V:4 bass 
V:1
 [DF]2 | [Fd]2 ([Fd][Ec]) [DB]2 [FB]2 | [GB]2 ([GB][FA]) [EG]2 [EG]2 | [DF]2 [DB]2 [Fd]2 (cB) | %4
 [Fc]6 F2 | [Fd]2 ([Fd][Ec]) [DB]2 B2 | [GB]2 ([GB][FA]) [EG]2 [Ge]2 | [Fd]3 [FB] (dc) (BA) | %8
 [FB]6 |] %9
V:2
 x2 | x8 | x8 | x6 F2 | x6 F2 | x6 (F_A) | x8 | x4 F2 F2 | x6 |] %9
V:3
 [B,,B,]2 | [B,,B,]2 (B,F,) [B,,F,]2 [D,B,]2 | [E,B,]2 [E,B,]2 [E,B,]2 [E,B,]2 | %3
 [B,,B,]2 [B,,B,]2 B,2 ([A,C][G,D]) | [F,A,]6 [F,A,]2 | [B,,B,]2 (B,F,) [B,,F,]2 [D,B,]2 | %6
 [E,B,]2 [E,B,]2 [E,B,]2 [E,B,]2 | [F,B,]3 [F,D] (FE) (DC) | [B,,D]6 |] %9
V:4
 x2 | x2 B,,2 x4 | x8 | x4 B,2 x2 | x8 | x2 B,,2 x4 | x8 | x4 F,2 F,2 | x6 |] %9

